X:2
T:Oestreicher Marsch (Schottisch)  CF 5-
%%MIDI program 21
R:shottishe
M:2/4
L:1/16
K:C %%MIDI gchordon
cc |:"C"c2ee e2cc | c2gg g2fe | "G7"d2^c2 d2e2 | "C"c4 G2cc | 
c2ee e2cc | c2gg g2^fe | "D7"d2d2 e2^f2 |1 "G"g2ggg2 cc :|2 "G"g2ggg2 GB || 
|: "G7"d2^cd e2d2 | d2G2 !>!g4 | "C"e2^de f2e2 | e2G2g4 | "F"a2aa a2g2 | 
"C"e2c2 cdef | "G7".g4!>!B4 | "C"c2ccc2z2 ::[K:F] [L:1/8] "F"a2gf | "C7"e>GB2 | f2 ed | 
"F"c>FA2 | A2 cf | a>c ba | "C7"a3g |1 "F"f2zc :|2 "F"f3z |] 
% st00843

